X: 29091
T: Neily Cleere's
R: polka
M: 2/4
K: Dmixolydian
A>A AB|cA FG|AB c/B/A|G2 FG|
A>A AB|cA fg|ed AF|G2:|
a>g fa|ge fg|ag fa|g2 fg|
a>g fa|ge gf|ed AF|G2:|

